X:3665
T:Cutting Ferns
R:Strathspey
A:Cape Breton
M:C
L:1/8
K:ADor
B|A/A/A a2g<e g2|e>dB>AG>A B<G |A/A/Aa2 g<e g2|e>dB>G A/A/A A :|
g|e>dB>A G>AB<d|e>dB>A B/B/B Bg|e>dB>A G>AB<d|e<dg>B  A/A/A A :|


